public/images/icon1.svg

<svg width="34" height="48" viewBox="0 0 34 48" fill="none" xmlns="http://www.w3.org/2000/svg">
<path d="M24.6035 17.3715C24.6035 13.197 21.1925 9.80103 17 9.80103C12.8075 9.80103 9.39648 13.197 9.39648 17.3715C9.39648 21.546 12.8075 24.942 17 24.942C21.1925 24.942 24.6035 21.546 24.6035 17.3715Z" fill="white"/>
<path d="M16.9962 47.9969L20.078 43.9657C23.2947 39.7072 33.7895 25.1977 33.7895 17.2649C33.7902 6.93968 27.0432 0.00292969 17 0.00292969C6.95672 0.00292969 0.209717 6.93968 0.209717 17.2657C0.209717 25.8082 12.5337 42.1402 13.9355 43.9694L16.9962 47.9969ZM6.39647 17.3714C6.39647 11.5432 11.153 6.80093 17 6.80093C22.847 6.80093 27.6035 11.5432 27.6035 17.3714C27.6035 23.1997 22.847 27.9419 17 27.9419C11.153 27.9419 6.39647 23.2004 6.39647 17.3714Z" fill="white"/>
</svg>

<svg width="34" height="48" fill="none" xmlns="http://www.w3.org/2000/svg"><path d="M24.604 17.372c0-4.175-3.412-7.571-7.604-7.571-4.193 0-7.604 3.396-7.604 7.57 0 4.175 3.411 7.571 7.604 7.571 4.192 0 7.604-3.396 7.604-7.57z" fill="#fff"/><path d="m16.996 47.997 3.082-4.031c3.217-4.259 13.711-18.768 13.711-26.701C33.79 6.94 27.043.003 17 .003 6.957.003.21 6.94.21 17.266c0 8.542 12.324 24.874 13.725 26.703l3.061 4.028zM6.396 17.37c0-5.828 4.757-10.57 10.604-10.57 5.847 0 10.604 4.742 10.604 10.57 0 5.829-4.757 10.57-10.604 10.57-5.847 0-10.604-4.74-10.604-10.57z" fill="#fff"/></svg>
